src/assets/images/check-mark.svg

<svg width="20" height="21" viewBox="0 0 20 21" fill="none" xmlns="http://www.w3.org/2000/svg">
<g clip-path="url(#clip0_121_160)">
<path d="M11.6763 14.1809C11.2165 14.6534 10.6038 14.9134 9.95297 14.9134C9.30224 14.9134 8.6896 14.6534 8.22975 14.1809L4.77661 10.6393C4.31601 10.1675 4.06251 9.53935 4.06251 8.87178C4.06251 8.20422 4.31601 7.57602 4.77661 7.10438C5.23646 6.63182 5.84911 6.37181 6.49998 6.37181C7.15071 6.37181 7.76335 6.63182 8.2232 7.10438L9.95297 8.87758L14.7281 3.98017C13.1681 2.61605 11.1482 1.78857 8.93746 1.78857C4.00151 1.78857 0 5.89269 0 10.955C0 16.0176 4.00151 20.1217 8.93746 20.1217C13.8733 20.1217 17.8748 16.0176 17.8748 10.955C17.8748 10.0076 17.7343 9.09425 17.4743 8.23428L11.6763 14.1809Z" fill="#42688D"/>
<path d="M9.95298 13.2468C9.745 13.2468 9.53702 13.1652 9.37858 13.0026L5.92559 9.46097C5.60781 9.13519 5.60781 8.60847 5.92559 8.28269C6.24322 7.95677 6.75663 7.95677 7.0744 8.28269L9.95298 11.2351L18.113 2.86603C18.4306 2.54026 18.944 2.54026 19.2618 2.86603C19.5794 3.19196 19.5794 3.71853 19.2618 4.04446L10.5274 13.0026C10.3691 13.1652 10.161 13.2468 9.95298 13.2468Z" fill="#D9E1E8"/>
</g>
<defs>
<clipPath id="clip0_121_160">
<rect width="19.5" height="20" fill="white" transform="translate(0 0.968018)"/>
</clipPath>
</defs>
</svg>

<svg xmlns="http://www.w3.org/2000/svg" width="20" height="21" fill="none">
  <g clip-path="url(#a)">
    <path fill="#003366" d="M11.676 14.18a2.39 2.39 0 0 1-1.723.733 2.39 2.39 0 0 1-1.723-.732l-3.453-3.542a2.515 2.515 0 0 1-.714-1.767c0-.668.253-1.296.714-1.768A2.39 2.39 0 0 1 6.5 6.372c.65 0 1.263.26 1.723.732l1.73 1.774 4.775-4.898a8.765 8.765 0 0 0-5.79-2.191C4.001 1.789 0 5.893 0 10.955c0 5.063 4.002 9.167 8.937 9.167 4.936 0 8.938-4.104 8.938-9.167 0-.947-.14-1.86-.4-2.72l-5.799 5.946Z"/>
    <path fill="#D9DFE7" d="M9.953 13.247a.8.8 0 0 1-.574-.244L5.926 9.46a.847.847 0 0 1 0-1.178.797.797 0 0 1 1.148 0l2.879 2.952 8.16-8.369a.797.797 0 0 1 1.149 0 .848.848 0 0 1 0 1.178l-8.735 8.959a.8.8 0 0 1-.574.244Z"/>
  </g>
  <defs>
    <clipPath id="a">
      <path fill="#fff" d="M0 .968h19.5v20H0z"/>
    </clipPath>
  </defs>
</svg>
